src/assets/img/Twit.svg

<svg xmlns="http://www.w3.org/2000/svg" fill="none" viewBox="0 0 16 13"><path fill="#202020" d="M16 1.539a6.839 6.839 0 0 1-1.89.518A3.262 3.262 0 0 0 15.553.244a6.555 6.555 0 0 1-2.08.794 3.28 3.28 0 0 0-5.674 2.243c0 .26.022.51.076.748A9.284 9.284 0 0 1 1.114.598a3.285 3.285 0 0 0 1.008 4.384A3.24 3.24 0 0 1 .64 4.578v.036a3.295 3.295 0 0 0 2.628 3.223 3.274 3.274 0 0 1-.86.108 2.9 2.9 0 0 1-.621-.056 3.311 3.311 0 0 0 3.065 2.285 6.59 6.59 0 0 1-4.067 1.399c-.269 0-.527-.012-.785-.045A9.234 9.234 0 0 0 5.032 13c6.036 0 9.336-5 9.336-9.334 0-.145-.005-.285-.012-.424A6.544 6.544 0 0 0 16 1.539z"/></svg>

<svg width="16" height="13" viewBox="0 0 16 13" fill="none" xmlns="http://www.w3.org/2000/svg">
<path d="M16 1.539C15.405 1.8 14.771 1.973 14.11 2.057C14.79 1.651 15.309 1.013 15.553 0.244C14.919 0.622 14.219 0.889 13.473 1.038C12.871 0.397 12.013 0 11.077 0C9.261 0 7.799 1.474 7.799 3.281C7.799 3.541 7.821 3.791 7.875 4.029C5.148 3.896 2.735 2.589 1.114 0.598C0.831 1.089 0.665 1.651 0.665 2.256C0.665 3.392 1.25 4.399 2.122 4.982C1.595 4.972 1.078 4.819 0.64 4.578C0.64 4.588 0.64 4.601 0.64 4.614C0.64 6.208 1.777 7.532 3.268 7.837C3.001 7.91 2.71 7.945 2.408 7.945C2.198 7.945 1.986 7.933 1.787 7.889C2.212 9.188 3.418 10.143 4.852 10.174C3.736 11.047 2.319 11.573 0.785 11.573C0.516 11.573 0.258 11.561 0 11.528C1.453 12.465 3.175 13 5.032 13C11.068 13 14.368 8 14.368 3.666C14.368 3.521 14.363 3.381 14.356 3.242C15.007 2.78 15.554 2.203 16 1.539Z" fill="#202020"/>
</svg>
